icons/.icons/Papirus/24x24/panel/obs-tray.svg

<svg xmlns="http://www.w3.org/2000/svg" width="24" height="24" version="1.1">
 <defs>
  <style id="current-color-scheme" type="text/css">
   .ColorScheme-Text { color:#dfdfdf; } .ColorScheme-Highlight { color:#4285f4; }
  </style>
 </defs>
 <path style="fill:currentColor" class="ColorScheme-Text" d="m 12.000031,4.0000002 a 8,8 0 0 0 -0.808594,0.041016 8,8 0 0 0 -0.781249,0.1191406 c -0.206156,0.041816 -0.407285,0.096891 -0.6074222,0.1542969 a 8,8 0 0 0 -0.177734,0.046875 c -0.03598,0.011226 -0.0697,0.027342 -0.105469,0.039063 a 8,8 0 0 0 -3.679688,2.5058594 c -0.0035,0.00424 -0.0082,0.00747 -0.01172,0.011719 a 8,8 0 0 0 -0.390624,0.5234372 c -0.02806,0.040253 -0.0586,0.078355 -0.08594,0.1191407 a 8,8 0 0 0 -0.271485,0.4433593 c -0.05078,0.087506 -0.102876,0.1741204 -0.150391,0.2636719 a 8,8 0 0 0 -0.193359,0.4042969 c -0.04636,0.1006576 -0.09447,0.1998949 -0.136719,0.3027344 a 8,8 0 0 0 -0.158203,0.4296874 c -0.03732,0.108185 -0.07469,0.215964 -0.107422,0.326172 a 8,8 0 0 0 -0.09766,0.3769531 c -0.0354,0.144876 -0.0703,0.289689 -0.09766,0.4375 a 8,8 0 0 0 -0.04883,0.324219 c -0.02091,0.146481 -0.04187,0.292517 -0.05469,0.441406 a 8,8 0 0 0 -0.03516,0.689453 8,8 0 0 0 0.04101,0.808594 c 2.59e-4,0.0026 -2.61e-4,0.0053 0,0.0078 a 8,8 0 0 0 0.119141,0.773438 c 0.04182,0.206155 0.09689,0.407284 0.154297,0.607422 a 8,8 0 0 0 0.04687,0.173828 c 0.01158,0.03719 0.02695,0.07242 0.03906,0.109375 a 8,8 0 0 0 2.50586,3.67969 c 0.0042,0.0035 0.0075,0.0082 0.01172,0.01172 a 8,8 0 0 0 0.523437,0.390624 c 0.04025,0.02806 0.07835,0.0586 0.11914,0.08594 a 8,8 0 0 0 0.44336,0.271484 c 0.08751,0.05078 0.17412,0.102875 0.263672,0.15039 a 8,8 0 0 0 0.404297,0.19336 c 0.100657,0.04636 0.199894,0.09447 0.302734,0.136719 a 8,8 0 0 0 0.429687,0.158203 c 0.108186,0.03732 0.215964,0.07469 0.326172,0.107422 a 8,8 0 0 0 0.3769532,0.09766 c 0.144876,0.0354 0.289689,0.0703 0.4375,0.09766 a 8,8 0 0 0 0.324219,0.04883 c 0.14648,0.02091 0.292517,0.04187 0.441405,0.05469 A 8,8 0 0 0 12,20 a 8,8 0 0 0 0.808593,-0.04102 8,8 0 0 0 0.0078,0 c 0.261895,-0.02671 0.519532,-0.06764 0.773438,-0.11914 0.206155,-0.04182 0.407284,-0.09689 0.607423,-0.154297 0.05477,-0.01571 0.111729,-0.02612 0.166015,-0.04297 a 8,8 0 0 0 0.01172,-0.0039 c 0.03598,-0.01123 0.0697,-0.02734 0.105469,-0.03906 a 8,8 0 0 0 3.679687,-2.50586 8,8 0 0 0 0.0098,-0.0098 c 5.8e-4,-7.03e-4 0.0014,-0.0012 0.002,-0.002 a 8,8 0 0 0 0.390545,-0.52336 c 0.02806,-0.04025 0.0586,-0.07836 0.08594,-0.119141 a 8,8 0 0 0 0.271484,-0.443359 c 0.05078,-0.08751 0.102875,-0.174121 0.15039,-0.263672 a 8,8 0 0 0 0.19336,-0.404297 c 0.04636,-0.100658 0.09447,-0.199895 0.136719,-0.302734 a 8,8 0 0 0 0.158203,-0.429688 c 0.03732,-0.108185 0.07469,-0.215963 0.107422,-0.326172 a 8,8 0 0 0 0.09766,-0.376953 c 0.0354,-0.144876 0.0703,-0.289688 0.09766,-0.4375 a 8,8 0 0 0 0.04883,-0.324218 c 0.02091,-0.146482 0.04187,-0.292518 0.05469,-0.441407 a 8,8 0 0 0 0.03514,-0.689453 8,8 0 0 0 -0.04102,-0.808594 8,8 0 0 0 0,-0.0078 c -0.02671,-0.261907 -0.06763,-0.519543 -0.119136,-0.77345 -0.04182,-0.206155 -0.09689,-0.407284 -0.154297,-0.6074211 -0.01571,-0.05477 -0.02612,-0.111729 -0.04297,-0.166016 a 8,8 0 0 0 -0.0039,-0.01172 c -0.01123,-0.03598 -0.02734,-0.0697 -0.03906,-0.105469 a 8,8 0 0 0 -2.505859,-3.6796872 8,8 0 0 0 -0.0098,-0.00977 c -7.03e-4,-5.805e-4 -0.0012,-0.00137 -0.002,-0.00195 A 8,8 0 0 0 16.558587,5.4374989 c -0.04025,-0.028061 -0.07836,-0.058601 -0.119141,-0.085937 A 8,8 0 0 0 15.996087,5.080077 C 15.908577,5.0293 15.821966,4.9772014 15.732415,4.9296864 A 8,8 0 0 0 15.328118,4.736327 C 15.227461,4.689964 15.128222,4.641856 15.025384,4.5996083 A 8,8 0 0 0 14.595696,4.4414051 C 14.487512,4.4040891 14.379731,4.3667201 14.269524,4.3339833 a 8,8 0 0 0 -0.376953,-0.097656 c -0.144874,-0.035402 -0.289691,-0.070298 -0.4375,-0.097656 A 8,8 0 0 0 13.130853,4.0898433 C 12.984375,4.0689313 12.83833,4.0479743 12.689446,4.0351563 a 8,8 0 0 0 -0.689453,-0.035156 z m 0,2 a 6,6 0 0 1 5.958984,5.3632818 c -0.165881,-0.264184 -0.356033,-0.517778 -0.591796,-0.750001 -0.6576,-0.6510401 -1.458057,-1.0371821 -2.404297,-1.1640621 -0.1408,-0.01888 -0.258692,-0.05346 -0.451172,0.01758 -0.19248,0.0704 -0.28695,0.223993 -0.34375,0.320313 -0.08208,0.13888 -0.550421,0.6177961 -0.812501,0.7851561 -0.74368,0.4752 -2.015478,0.47536 -2.761717,0 -0.8824002,-0.56208 -1.3872362,-1.664879 -1.2285162,-2.636719 0.08992,-0.55008 0.325531,-1.02726 0.7128912,-1.4375 0.08048,-0.08528 0.140269,-0.1519753 0.189453,-0.2070313 0.01183,-0.013252 0.021,-0.029917 0.03125,-0.041016 A 6,6 0 0 1 12.000031,6.0000002 Z M 8.2637028,7.3046877 c -0.236615,0.5193882 -0.3938041,1.187374 -0.3925781,1.7363282 0.0012,0.512544 0.125881,1.1194211 0.320313,1.6054691 0.05136,0.12832 0.113228,0.300879 0.298828,0.416015 0.185616,0.1152 0.319507,0.1099 0.5058591,0.13086 0.1619199,0.01824 0.496644,0.09365 0.644532,0.144531 1.4894712,0.512432 2.1895302,2.218484 1.4902342,3.646484 -0.469168,0.958016 -1.5978283,1.592853 -2.5898442,1.480469 -0.12848,-0.0144 -0.223107,-0.02212 -0.310547,-0.02149 -0.04368,3.04e-4 -0.0749,-0.0068 -0.167968,0.02149 -0.01099,0.003 -0.02904,0.01219 -0.04297,0.01758 A 6,6 0 0 1 6.0000307,12 6,6 0 0 1 8.2637028,7.3046877 Z m 0.4570319,1.5253906 0.0019,0.00195 c 0.10496,0.6310246 0.358067,1.1659476 0.7832031,1.6582037 -0.1459201,-0.03312 -0.287633,-0.07903 -0.417969,-0.09375 -0.14608,-0.01664 -0.153265,-0.02097 -0.140625,-0.0098 -0.0048,-0.0112 -0.0028,-0.0077 -0.01563,-0.03711 -0.1464,-0.3662401 -0.258806,-0.9377801 -0.259766,-1.3125001 -1.28e-4,-0.05536 0.04275,-0.1404557 0.04883,-0.2070317 z m 6.1015623,1.3984377 c 0.0096,5.76e-4 -0.02552,0.0076 0.0332,0.01563 0.326176,0.04368 0.52545,0.271947 0.794922,0.380859 -0.337936,-0.05104 -0.644347,-0.245852 -0.990234,-0.1875 -0.06896,0.0112 -0.08905,0.09206 -0.15625,0.107422 0.1016,-0.1136 0.245912,-0.200406 0.318359,-0.316406 z m 0.416015,0.964844 c 1.038352,0.02464 2.06246,0.718765 2.4375,1.716797 0.02976,0.07936 0.05111,0.139356 0.07031,0.1875 0.0096,0.024 0.01989,0.04404 0.03125,0.06836 0.0064,0.0128 0.01076,0.02377 0.02148,0.04297 0.0048,0.0096 0.01272,0.02159 0.02344,0.03711 0.0066,0.0095 0.02032,0.02334 0.03516,0.03906 a 6,6 0 0 1 -5.857421,4.714845 6,6 0 0 1 -2.5214842,-0.564454 c 0.364128,2.48e-4 0.7251482,-0.02505 1.0253912,-0.117188 l 0.03125,-0.0098 0.02148,-0.01172 0.0059,-0.0039 c 0.810559,-0.26456 1.660779,-0.859324 2.130859,-1.519531 l 0.251953,-0.34961 -0.232422,-0.697266 c -0.53872,-1.630079 0.410992,-3.220032 2.082032,-3.501952 0.14704,-0.0248 0.294239,-0.03477 0.443358,-0.03125 z m -1.990235,0.203125 c -0.57888,0.4704 -1.03987,1.055197 -1.27539,1.716797 -0.22288,-0.63856 -0.64366,-1.226193 -1.187499,-1.695313 0.806399,0.30208 1.666249,0.301236 2.462889,-0.02148 z m -1.279296,3.624999 0.08789,0.269532 -0.01563,0.02148 c -0.0912,0.12816 -0.34043,0.209672 -0.496094,0.347656 0.08432,-0.12576 0.237471,-0.185017 0.304688,-0.322265 0.05152,-0.10512 0.08154,-0.211111 0.119141,-0.316407 z"/>
</svg>

<svg xmlns="http://www.w3.org/2000/svg" width="24" height="24" version="1.1">
 <defs>
  <style id="current-color-scheme" type="text/css">
   .ColorScheme-Text { color:#dfdfdf; } .ColorScheme-Highlight { color:#4285f4; } .ColorScheme-NeutralText { color:#ff9800; } .ColorScheme-PositiveText { color:#4caf50; } .ColorScheme-NegativeText { color:#f44336; }
  </style>
 </defs>
 <path style="fill:currentColor" class="ColorScheme-Text" d="M 12,4 A 8,8 0 0 0 4,12 8,8 0 0 0 12,20 8,8 0 0 0 20,12 8,8 0 0 0 12,4 Z M 12,6 A 6,6 0 0 1 17.959,11.363 C 17.793,11.099 17.603,10.846 17.367,10.613 16.71,9.9625 15.909,9.5761 14.963,9.4492 14.822,9.4303 14.704,9.3958 14.512,9.4668 14.319,9.5372 14.225,9.6908 14.168,9.7871 14.086,9.926 13.618,10.405 13.355,10.572 12.612,11.047 11.34,11.048 10.594,10.572 9.7111,10.01 9.2064,8.9074 9.3652,7.9355 9.4551,7.3855 9.6909,6.9083 10.078,6.498 10.159,6.4128 10.218,6.3461 10.268,6.291 10.279,6.2778 10.289,6.2611 10.299,6.25 A 6,6 0 0 1 12,6 Z M 8.2637,7.3047 C 8.0271,7.8241 7.8699,8.4921 7.8711,9.041 7.8723,9.5536 7.997,10.16 8.1914,10.646 8.2428,10.775 8.3046,10.947 8.4902,11.062 8.6758,11.178 8.8098,11.172 8.9961,11.193 9.158,11.212 9.4927,11.287 9.6406,11.338 11.13,11.85 11.83,13.556 11.131,14.984 10.662,15.942 9.5331,16.577 8.541,16.465 8.4126,16.45 8.3179,16.443 8.2305,16.443 8.1868,16.444 8.1556,16.437 8.0625,16.465 8.0515,16.468 8.0334,16.477 8.0195,16.482 A 6,6 0 0 1 6,12 6,6 0 0 1 8.2637,7.3047 Z M 8.7207,8.8301 8.7227,8.832 C 8.8277,9.4631 9.0808,9.9982 9.5059,10.49 9.36,10.457 9.2182,10.411 9.0879,10.396 8.9418,10.38 8.9347,10.376 8.9473,10.387 8.9425,10.375 8.9444,10.379 8.9316,10.35 8.7852,9.9829 8.6729,9.4118 8.6719,9.0371 8.6718,8.9817 8.7146,8.8967 8.7207,8.8301 Z M 14.822,10.229 C 14.832,10.229 14.797,10.236 14.855,10.244 15.182,10.288 15.381,10.516 15.65,10.625 15.312,10.574 15.006,10.379 14.66,10.438 14.591,10.448 14.571,10.53 14.504,10.545 14.606,10.431 14.75,10.345 14.822,10.229 Z M 15.238,11.193 C 16.277,11.218 17.301,11.912 17.676,12.91 17.706,12.99 17.727,13.05 17.746,13.098 17.756,13.122 17.766,13.142 17.777,13.166 17.784,13.179 17.788,13.19 17.799,13.209 17.804,13.219 17.812,13.231 17.822,13.246 17.829,13.256 17.843,13.269 17.857,13.285 A 6,6 0 0 1 12,18 6,6 0 0 1 9.4785,17.436 C 9.8427,17.436 10.204,17.41 10.504,17.318 L 10.535,17.309 10.557,17.297 10.562,17.293 C 11.372,17.028 12.223,16.434 12.693,15.773 L 12.945,15.424 12.713,14.727 C 12.174,13.096 13.124,11.507 14.795,11.225 14.942,11.2 15.089,11.19 15.238,11.193 Z M 13.248,11.396 C 12.669,11.867 12.208,12.452 11.973,13.113 11.75,12.475 11.329,11.887 10.785,11.418 11.592,11.72 12.451,11.719 13.248,11.396 Z M 11.969,15.021 12.057,15.291 12.041,15.312 C 11.95,15.442 11.701,15.522 11.545,15.66 11.629,15.534 11.782,15.475 11.85,15.338 11.901,15.233 11.931,15.127 11.969,15.021 Z"/>
</svg>
